X:1
T:Ich Sterbe Täglich, 98.98.88
T:Ich Sterbe Täglich, 98.98.88
T:Municipal Library Manuscript (Leipzi
T:Public Domain Courtesy of the Cyber Hymnal™
C:Municipal Library Manuscript (Leipzi
Z:Public Domain
Z:Courtesy of the Cyber Hymnal™
%%score ( 1 2 ) ( 3 4 )
L:1/8
Q:1/4=113
M:4/4
K:C
V:1 treble 
V:2 treble 
V:3 bass 
V:4 bass 
V:1
 z2 [Ec]2 [GB]2 [FA]2 | [EG]2 [EA]2 [DF]2 [DG]2 | (ED) C2 z2 [CE]2 | [B,D]2 [B,G]2 [D^F]2 [Ec]2 | %4
 [GB]2 [^FA]2 [DG]4 | z2 [Ec]2 [GB]2 [FA]2 | [EG]2 [EA]2 [DF]2 [DG]2 | (ED) C2 z2 [CE]2 | %8
 [B,D]2 [B,G]2 [D^F]2 [Ec]2 | [GB]2 [^FA]2 [DG]4 | z2 [DG]2 [Cc]2 [Ec]2 | %11
 [CA]2 [^CA]2 [Dd]2 [Dd]2 | [DB]4 z2 [Cc]2 | [DF]2 [CE]2 [B,D]2 [Cc]2 | [Dc]2 [DB]2 [Ec]4 |] %15
V:2
 x8 | x8 | C2 C2 x4 | x8 | x8 | x8 | x8 | C2 C2 x4 | x8 | x8 | x8 | x8 | x8 | x8 | x8 |] %15
V:3
 z2 [C,G,]2 [E,G,]2 [F,C]2 | [C,C]2 [^C,A,]2 [D,A,]2 [B,,G,]2 | (G,F,) [C,E,]2 z2 [C,G,]2 | %3
 [G,,G,]2 [E,G,]2 [D,A,]2 [A,,A,]2 | [B,,D]2 [D,D]2 [G,B,]4 | z2 [C,G,]2 [E,G,]2 [F,C]2 | %6
 [C,C]2 [^C,A,]2 [D,A,]2 [B,,G,]2 | (G,F,) [C,E,]2 z2 [C,G,]2 | [G,,G,]2 [E,G,]2 [D,A,]2 [A,,A,]2 | %9
 [B,,D]2 [D,D]2 [G,B,]4 | z2 [G,B,]2 [E,G,]2 [C,G,]2 | [F,A,]2 [E,G,]2 [D,^F,]2 [F,A,]2 | %12
 G,4 z2 [E,G,]2 | [D,A,]2 [E,G,]2 G,2 [E,G,]2 | [F,A,]2 G,2 [C,G,]4 |] %15
V:4
 x8 | x8 | C,2 x6 | x8 | x8 | x8 | x8 | C,2 x6 | x8 | x8 | x8 | x8 | G,4 x4 | x4 G,2 x2 | %14
 x2 G,2 x4 |] %15

